src/renderer/assets/icon/downArrow-default-icon.svg

<?xml version="1.0" encoding="UTF-8"?>
<svg width="13px" height="13px" viewBox="0 0 13 13" version="1.1" xmlns="http://www.w3.org/2000/svg" xmlns:xlink="http://www.w3.org/1999/xlink">
    <!-- Generator: Sketch 53.1 (72631) - https://sketchapp.com -->
    <title>icons/downArrow-default-icon</title>
    <desc>Created with Sketch.</desc>
    <defs>
        <radialGradient cx="84.2036702%" cy="81.3988863%" fx="84.2036702%" fy="81.3988863%" r="158.193895%" gradientTransform="translate(0.842037,0.813989),scale(1.000000,0.577226),rotate(-122.159731),translate(-0.842037,-0.813989)" id="radialGradient-1">
            <stop stop-color="#FFFFFF" stop-opacity="0.775928442" offset="0%"></stop>
            <stop stop-color="#FFFFFF" stop-opacity="0.508378623" offset="100%"></stop>
        </radialGradient>
    </defs>
    <g id="icons/downArrow-default-icon" stroke="none" stroke-width="1" fill="none" fill-rule="evenodd" opacity="0.7" stroke-opacity="0.168081975">
        <path d="M6.97290208,7.84734179 L6.97290208,7.84556975 C6.9766578,7.84249089 6.98036392,7.83937553 6.98401943,7.83622443 L7.04244938,7.77779448 C7.11069382,7.69814621 7.15043208,7.60265673 7.15043208,7.5 C7.15043208,7.39734327 7.11069382,7.30185379 7.04244806,7.2222042 L6.98401943,7.16377556 C6.98036392,7.16062447 6.9766578,7.15750911 6.97290208,7.15443025 L6.97290208,7.15265821 L4.52010101,4.69985715 C4.37951227,4.5592684 4.37951227,4.33132901 4.52010101,4.19074026 L4.71809091,3.99275037 C4.85867966,3.85216162 5.08661905,3.85216162 5.22720779,3.99275037 L8.47989899,7.24544156 C8.62048773,7.3860303 8.62048773,7.6139697 8.47989899,7.75455844 L8.28190909,7.95254834 L5.22720779,11.0072496 C5.08661905,11.1478384 4.85867966,11.1478384 4.71809091,11.0072496 L4.52010101,10.8092597 C4.37951227,10.668671 4.37951227,10.4407316 4.52010101,10.3001429 L6.97290208,7.84734179 Z" id="Icon" stroke="#FFFFFF" stroke-width="0.5" fill="url(#radialGradient-1)" transform="translate(6.500000, 7.500000) rotate(90.000000) translate(-6.500000, -7.500000) "></path>
    </g>
</svg>

<svg width="13" height="13" xmlns="http://www.w3.org/2000/svg">
    <defs>
        <radialGradient cx="84.204%" cy="81.399%" fx="84.204%" fy="81.399%" r="158.194%" gradientTransform="matrix(-.53228 -.48866 .84657 -.30725 .601 1.476)" id="a">
            <stop stop-color="#FFF" stop-opacity=".776" offset="0%"/>
            <stop stop-color="#FFF" stop-opacity=".508" offset="100%"/>
        </radialGradient>
    </defs>
    <path d="M6.973 7.847v-.001a.587.587 0 00.011-.01l.058-.058A.425.425 0 007.15 7.5a.425.425 0 00-.108-.278l-.058-.058a.587.587 0 00-.011-.01v-.001L4.52 4.7a.36.36 0 010-.51l.198-.197a.36.36 0 01.51 0L8.48 7.245a.36.36 0 010 .51l-.198.198-3.055 3.054a.36.36 0 01-.509 0l-.198-.198a.36.36 0 010-.509l2.453-2.453z" stroke="#FFF" stroke-width=".5" fill="url(#a)" transform="rotate(90 6.5 7.5)" fill-rule="evenodd" opacity=".7" stroke-opacity=".168"/>
</svg>
